public/logo.svg

<?xml version="1.0" encoding="UTF-8"?>
<svg width="1508px" height="226px" viewBox="0 0 1508 226" version="1.1" xmlns="http://www.w3.org/2000/svg" xmlns:xlink="http://www.w3.org/1999/xlink">
    <g id="Page-1" stroke="none" stroke-width="1" fill="none" fill-rule="evenodd">
        <path d="M39.009233,222 L39.009,150.736 L79.3785511,150.735795 C95.354016,150.735795 108.847677,147.840357 119.859533,142.049481 L120.46875,141.724787 C131.590909,135.717448 140.001184,127.461648 145.699574,116.957386 C151.397964,106.453125 154.247159,94.438447 154.247159,80.9133523 C154.247159,67.5255682 151.415128,55.5623816 145.751065,45.0237926 C140.087003,34.4852036 131.745384,26.1950758 120.726207,20.1534091 C109.707031,14.1117424 96.0961174,11.0909091 79.8934659,11.0909091 L79.8934659,11.0909091 L0.802556818,11.0909091 L0.802556818,222 L39.009233,222 Z M39.009,43.015625 L74.0234375,43.015625 C83.5665246,43.015625 91.3760653,44.6118608 97.4520597,47.8043324 C103.528054,50.996804 108.024976,55.4422348 110.942827,61.140625 C113.860677,66.8390152 115.319602,73.4299242 115.319602,80.9133523 C115.319602,88.3967803 113.860677,95.022017 110.942827,100.789062 C108.024976,106.556108 103.545218,111.087358 97.5035511,114.382812 C91.4618845,117.678267 83.7038352,119.326 74.2294034,119.326 L74.2294034,119.326 L39.009,119.326 L39.009,43.015625 Z M238.860822,225.089489 C254.308265,225.089489 267.69605,221.691051 279.024175,214.894176 C290.3523,208.097301 299.123014,198.588542 305.336319,186.367898 C311.549624,174.147254 314.656277,159.866951 314.656277,143.526989 C314.656277,127.187027 311.549624,112.872396 305.336319,100.583097 C299.123014,88.2937973 290.3523,78.7507102 279.024175,71.9538352 C267.69605,65.1569602 254.308265,61.7585227 238.860822,61.7585227 C223.413379,61.7585227 210.025595,65.1569602 198.69747,71.9538352 C187.369345,78.7507102 178.59863,88.2937973 172.385325,100.583097 C166.17202,112.872396 163.065368,127.187027 163.065368,143.526989 C163.065368,159.866951 166.17202,174.147254 172.385325,186.367898 C178.59863,198.588542 187.369345,208.097301 198.69747,214.894176 C210.025595,221.691051 223.413379,225.089489 238.860822,225.089489 Z M239.066788,195.224432 C230.484875,195.224432 223.361888,192.907315 217.697825,188.273082 C212.033763,183.638849 207.811461,177.408381 205.030922,169.581676 C202.250382,161.754972 200.860112,153.035748 200.860112,143.424006 C200.860112,133.743608 202.250382,124.972893 205.030922,117.111861 C207.811461,109.250829 212.033763,102.986032 217.697825,98.3174716 C223.361888,93.648911 230.484875,91.3146307 239.066788,91.3146307 C247.442735,91.3146307 254.445576,93.648911 260.075311,98.3174716 C265.705046,102.986032 269.910183,109.250829 272.690723,117.111861 C275.471263,124.972893 276.861532,133.743608 276.861532,143.424006 C276.861532,153.035748 275.471263,161.754972 272.690723,169.581676 C269.910183,177.408381 265.705046,183.638849 260.075311,188.273082 C254.445576,192.907315 247.442735,195.224432 239.066788,195.224432 Z M351.279933,41.3678977 C357.184289,41.3678977 362.247618,39.3940578 366.469919,35.4463778 C370.69222,31.4986979 372.803371,26.7443182 372.803371,21.1832386 C372.803371,15.5535038 370.69222,10.7647964 366.469919,6.81711648 C362.247618,2.86943655 357.184289,0.895596591 351.279933,0.895596591 C345.375577,0.895596591 340.295085,2.86943655 336.038456,6.81711648 C331.781827,10.7647964 329.653513,15.5535038 329.653513,21.1832386 C329.653513,26.7443182 331.764664,31.4986979 335.986965,35.4463778 C340.209266,39.3940578 345.306922,41.3678977 351.279933,41.3678977 Z M369.816865,222 L369.816865,63.8181818 L332.537036,63.8181818 L332.537036,222 L369.816865,222 Z M431.733347,222 L431.733347,125.81392 C431.733347,119.291667 433.037797,113.576113 435.646699,108.667259 C438.2556,103.758404 441.757021,99.948035 446.15096,97.2361506 C450.5449,94.5242661 455.419426,93.1683239 460.77454,93.1683239 C468.6699,93.1683239 475.072007,95.6055871 479.980861,100.480114 C484.889715,105.35464 487.344142,111.876894 487.344142,120.046875 L487.344142,120.046875 L487.344142,222 L523.903091,222 L523.903091,123.34233 C523.903091,114.41714 526.426173,107.156842 531.472338,101.561435 C536.518503,95.9660275 543.538508,93.1683239 552.532352,93.1683239 C560.084436,93.1683239 566.469379,95.4511127 571.687182,100.01669 C576.904985,104.582268 579.513886,111.773911 579.513886,121.591619 L579.513886,121.591619 L579.513886,222 L616.896699,222 L616.896699,115.824574 C616.896699,98.180161 612.296794,84.7580492 603.096983,75.5582386 C593.897172,66.358428 582.019805,61.7585227 567.464881,61.7585227 C555.999445,61.7585227 546.095918,64.3845881 537.754298,69.6367188 C529.412679,74.8888494 523.491159,81.9088542 519.989739,90.696733 L519.989739,90.696733 L518.342011,90.696733 C515.321178,81.7715436 510.120539,74.7172112 502.740094,69.5337358 C495.359649,64.3502604 486.314313,61.7585227 475.604085,61.7585227 C465.031169,61.7585227 455.934341,64.3159328 448.313602,69.4307528 C440.692864,74.5455729 435.234767,81.634233 431.939313,90.696733 L431.939313,90.696733 L430.085619,90.696733 L430.085619,63.8181818 L394.453517,63.8181818 L394.453517,222 L431.733347,222 Z M686.681169,225.192472 C694.919805,225.192472 702.111448,224.042495 708.256098,221.742543 C714.400747,219.44259 719.515567,216.387429 723.600558,212.57706 C727.685548,208.76669 730.860856,204.664536 733.126481,200.270597 L733.126481,200.270597 L734.362277,200.270597 L734.362277,222 L770.200345,222 L770.200345,116.133523 C770.200345,105.629261 768.29516,96.8757102 764.484791,89.8728693 C760.674421,82.8700284 755.645421,77.3261127 749.397788,73.2411222 C743.150155,69.1561316 736.250297,66.2211174 728.698214,64.4360795 C721.146131,62.6510417 713.55972,61.7585227 705.938981,61.7585227 C694.885477,61.7585227 684.793148,63.3890862 675.661993,66.6502131 C666.530837,69.91134 658.807116,74.7858665 652.490828,81.2737926 C646.17454,87.7617188 641.64329,95.811553 638.897078,105.423295 L638.897078,105.423295 L673.705316,110.366477 C675.55901,104.942708 679.146249,100.23982 684.467035,96.2578125 C689.787821,92.2758049 697.013792,90.2848011 706.144947,90.2848011 C714.795515,90.2848011 721.420752,92.4131155 726.020657,96.6697443 C730.620563,100.926373 732.920515,106.933712 732.920515,114.691761 L732.920515,114.691761 L732.920515,115.309659 C732.920515,118.879735 731.598901,121.5058 728.955671,123.187855 C726.312442,124.86991 722.107305,126.105705 716.34026,126.895241 C710.573214,127.684777 703.055458,128.560133 693.786993,129.521307 C686.097599,130.34517 678.665662,131.666785 671.491183,133.486151 C664.316704,135.305516 657.880269,137.965909 652.181879,141.46733 C646.483489,144.96875 641.986566,149.637311 638.691112,155.473011 C635.395657,161.308712 633.74793,168.689157 633.74793,177.614347 C633.74793,187.981297 636.065046,196.700521 640.699279,203.772017 C645.333512,210.843513 651.6498,216.181463 659.648143,219.785866 C667.646486,223.39027 676.657494,225.192472 686.681169,225.192472 Z M696.361566,197.799006 C688.603517,197.799006 682.218574,196.048295 677.206737,192.546875 C672.1949,189.045455 669.688981,183.861979 669.688981,176.996449 C669.688981,172.190578 670.959104,168.260062 673.49935,165.204901 C676.039597,162.14974 679.506689,159.763968 683.900629,158.047585 C688.294568,156.331203 693.272078,155.095407 698.833157,154.340199 C700.951664,154.045962 703.398034,153.701284 706.172269,153.306166 L707.586708,153.104403 C710.950818,152.623816 714.349256,152.074574 717.782021,151.456676 C721.214786,150.838778 724.321439,150.117898 727.101978,149.294034 C729.882518,148.47017 731.856358,147.577652 733.023498,146.616477 L733.023498,146.616477 L733.023498,165.256392 C733.023498,171.092093 731.530245,176.481534 728.54374,181.424716 C725.557234,186.367898 721.317769,190.332741 715.825345,193.319247 C710.332921,196.305753 703.844994,197.799006 696.361566,197.799006 Z M831.478111,222 L831.478111,129.315341 C831.478111,121.694602 832.902708,115.206676 835.751903,109.851562 C838.601098,104.496449 842.548778,100.394295 847.594943,97.5450994 C852.641108,94.6959044 858.425317,93.2713068 864.947571,93.2713068 C874.559313,93.2713068 882.094233,96.2578125 887.552329,102.230824 C893.010426,108.203835 895.739474,116.476799 895.739474,127.049716 L895.739474,127.049716 L895.739474,222 L933.019304,222 L933.019304,121.28267 C933.087959,108.650095 930.873826,97.9055398 926.376903,89.0490057 C921.879981,80.1924716 915.563693,73.4299242 907.42804,68.7613636 C899.292386,64.092803 889.766463,61.7585227 878.85027,61.7585227 C867.041558,61.7585227 857.13803,64.3674242 849.139687,69.5852273 C841.141345,74.8030303 835.322808,81.8401989 831.684077,90.696733 L831.684077,90.696733 L829.830383,90.696733 L829.830383,63.8181818 L794.198281,63.8181818 L794.198281,222 L831.478111,222 Z M1016.06791,224.78054 C1025.13041,224.78054 1032.64816,223.270123 1038.62117,220.24929 C1044.59419,217.228456 1049.40006,213.572562 1053.03879,209.281605 C1056.67752,204.990649 1059.45806,200.922822 1061.38041,197.078125 L1061.38041,197.078125 L1063.64603,197.078125 L1063.64603,222 L1100.30796,222 L1100.30796,11.0909091 L1062.92515,11.0909091 L1062.92515,89.9758523 L1061.38041,89.9758523 C1059.45806,86.1311553 1056.74617,82.0290009 1053.24475,77.6693892 C1049.74333,73.3097775 1045.00612,69.5680634 1039.03311,66.4442472 C1033.0601,63.3204309 1025.43936,61.7585227 1016.17089,61.7585227 C1004.0189,61.7585227 992.999726,64.8651752 983.113362,71.0784801 C973.226999,77.291785 965.38313,86.457268 959.581757,98.574929 C953.780384,110.69259 950.879697,125.539299 950.879697,143.115057 C950.879697,160.484848 953.728893,175.245739 959.427283,187.397727 C965.125673,199.549716 972.883722,208.818182 982.70143,215.203125 C992.519139,221.588068 1003.6413,224.78054 1016.06791,224.78054 Z M1026.46919,194.194602 C1018.29921,194.194602 1011.41651,191.980469 1005.8211,187.552202 C1000.2257,183.123935 996.003395,177.04794 993.1542,169.324219 C990.305005,161.600497 988.880408,152.795455 988.880408,142.909091 C988.880408,133.091383 990.287841,124.372159 993.102709,116.75142 C995.917576,109.130682 1000.10555,103.15767 1005.66663,98.8323864 C1011.22771,94.5071023 1018.16189,92.3444602 1026.46919,92.3444602 C1034.50186,92.3444602 1041.28157,94.438447 1046.80832,98.6264205 C1052.33507,102.814394 1056.52305,108.684422 1059.37224,116.236506 C1062.22144,123.788589 1063.64603,132.679451 1063.64603,142.909091 C1063.64603,153.138731 1062.20427,162.098248 1059.32075,169.787642 C1056.43723,177.477036 1052.21492,183.467211 1046.65385,187.758168 C1041.09277,192.049124 1034.36455,194.194602 1026.46919,194.194602 Z M1163.83074,222 L1163.83074,129.006392 C1163.83074,122.278172 1165.37548,116.339489 1168.46497,111.190341 C1171.55446,106.041193 1175.79393,102.007694 1181.18337,99.0898438 C1186.57281,96.1719934 1192.66597,94.7130682 1199.46284,94.7130682 C1202.62098,94.7130682 1205.89928,94.9361979 1209.29771,95.3824574 C1212.69615,95.8287169 1215.18491,96.3264678 1216.76398,96.8757102 L1216.76398,96.8757102 L1216.76398,62.5823864 C1215.04759,62.2391098 1212.90212,61.9816525 1210.32754,61.8100142 C1207.75297,61.6383759 1205.43585,61.5525568 1203.37619,61.5525568 C1194.31369,61.5525568 1186.26386,64.0413116 1179.22669,69.018821 C1172.18952,73.9963305 1167.22918,81.0506629 1164.34565,90.1818182 L1164.34565,90.1818182 L1162.69793,90.1818182 L1162.69793,63.8181818 L1126.55091,63.8181818 L1126.55091,222 L1163.83074,222 Z M1291.36798,225.089489 C1303.65728,225.089489 1314.57347,223.218632 1324.11656,219.476918 C1333.65965,215.735204 1341.50351,210.448745 1347.64816,203.617543 C1353.79281,196.78634 1357.96362,188.770833 1360.16059,179.571023 L1360.16059,179.571023 L1325.35235,175.65767 C1323.70463,180.120265 1321.26736,183.861979 1318.04056,186.882812 C1314.81376,189.903646 1311.0034,192.186435 1306.60946,193.731179 C1302.21552,195.275923 1297.30666,196.048295 1291.88289,196.048295 C1283.78157,196.048295 1276.71007,194.314749 1270.66841,190.847656 C1264.62674,187.380563 1259.92385,182.368726 1256.55974,175.812145 C1253.38787,169.630225 1251.7113,162.273417 1251.53005,153.741721 L1251.519,153.105 L1361.70534,153.104403 L1361.70534,141.673295 C1361.70534,127.804924 1359.78299,115.841738 1355.93829,105.783736 C1352.09359,95.7257339 1346.8243,87.4356061 1340.13041,80.9133523 C1333.43652,74.3910985 1325.74712,69.5680634 1317.06223,66.4442472 C1308.37733,63.3204309 1299.16036,61.7585227 1289.4113,61.7585227 C1274.30714,61.7585227 1261.15965,65.2084517 1249.96883,72.1083097 C1238.77802,79.0081676 1230.07596,88.61991 1223.86265,100.943537 C1217.64935,113.267164 1214.54269,127.564631 1214.54269,143.835938 C1214.54269,160.381866 1217.63218,174.747988 1223.81116,186.934304 C1229.99014,199.12062 1238.82951,208.526397 1250.32927,215.151634 C1261.82903,221.77687 1275.5086,225.089489 1291.36798,225.089489 Z M1251.62434,127.443797 C1252.04481,121.44607 1253.63846,115.873777 1256.40527,110.726918 C1259.59774,104.788234 1264.0775,99.9823627 1269.84454,96.309304 C1275.61159,92.6362453 1282.30548,90.7997159 1289.92622,90.7997159 C1297.06637,90.7997159 1303.33117,92.4131155 1308.72061,95.6399148 C1314.11005,98.866714 1318.31519,103.277817 1321.33602,108.873224 C1324.35685,114.468632 1325.9016,120.836411 1325.97025,127.976562 L1325.97025,127.976562 L1251.591,127.977 L1251.62434,127.443797 Z M1440.42841,225.089489 C1453.61022,225.089489 1465.28162,222.961174 1475.44261,218.704545 C1485.60359,214.447917 1493.55045,208.526397 1499.28316,200.939986 C1505.01588,193.353575 1507.91657,184.58286 1507.98522,174.627841 C1507.91657,163.299716 1504.22635,154.134233 1496.91456,147.131392 C1489.60277,140.128551 1478.46344,135.013731 1463.49659,131.786932 L1463.49659,131.786932 L1436.51505,126.019886 C1428.48238,124.166193 1422.7325,121.797585 1419.26541,118.914062 C1415.79832,116.03054 1414.0991,112.288826 1414.16775,107.68892 C1414.0991,102.333807 1416.69083,97.9741951 1421.94296,94.6100852 C1427.1951,91.2459754 1433.70019,89.5639205 1441.45823,89.5639205 C1447.22528,89.5639205 1452.09981,90.490767 1456.08181,92.3444602 C1460.06382,94.1981534 1463.23913,96.6354167 1465.60774,99.65625 C1467.97635,102.677083 1469.64124,105.903883 1470.60241,109.336648 L1470.60241,109.336648 L1504.58679,105.629261 C1502.04654,92.172822 1495.43847,81.4969223 1484.76257,73.6015625 C1474.08667,65.7062027 1459.48025,61.7585227 1440.94332,61.7585227 C1428.31074,61.7585227 1417.17142,63.7323627 1407.52535,67.6800426 C1397.87928,71.6277225 1390.36153,77.1888021 1384.97208,84.3632812 C1379.58264,91.5377604 1376.92225,99.9995265 1376.99091,109.74858 L1376.99074,110.364556 C1377.05215,121.622242 1380.65661,130.942839 1387.80412,138.326349 C1395.08158,145.844105 1406.30672,151.182055 1421.47954,154.340199 L1421.47954,154.340199 L1448.46108,160.004261 C1455.73854,161.583333 1461.11082,163.848958 1464.57791,166.801136 C1468.045,169.753314 1469.77855,173.495028 1469.77855,178.026278 C1469.77855,183.381392 1467.08383,187.878314 1461.69439,191.517045 C1456.30494,195.155777 1449.18196,196.975142 1440.32542,196.975142 C1431.74351,196.975142 1424.775,195.155777 1419.41988,191.517045 C1414.06477,187.878314 1410.56335,182.488873 1408.91562,175.348722 L1408.91562,175.348722 L1372.56264,178.850142 C1374.82826,193.405066 1381.86543,204.750355 1393.67414,212.886009 C1405.48286,221.021662 1421.06761,225.089489 1440.42841,225.089489 Z" id="Poimandres" fill="#000000" fill-rule="nonzero"></path>
    </g>
</svg>

<svg width="1508" height="226" xmlns="http://www.w3.org/2000/svg"><path d="M39.01 222l-.001-71.264h40.37c15.975 0 29.469-2.896 40.48-8.687l.61-.324c11.122-6.008 19.532-14.263 25.23-24.768 5.699-10.504 8.548-22.519 8.548-36.044 0-13.387-2.832-25.35-8.496-35.89-5.664-10.538-14.006-18.828-25.025-24.87-11.019-6.041-24.63-9.062-40.833-9.062H.803V222h38.206zm-.001-178.984h35.014c9.544 0 17.353 1.596 23.43 4.788 6.075 3.193 10.572 7.638 13.49 13.337 2.918 5.698 4.377 12.289 4.377 19.772 0 7.484-1.46 14.109-4.377 19.876-2.918 5.767-7.398 10.298-13.44 13.594-6.041 3.295-13.8 4.943-23.274 4.943H39.01v-76.31zm199.852 182.073c15.447 0 28.835-3.398 40.163-10.195 11.328-6.797 20.099-16.305 26.312-28.526 6.214-12.22 9.32-26.501 9.32-42.841s-3.106-30.655-9.32-42.944c-6.213-12.29-14.984-21.832-26.312-28.63-11.328-6.796-24.716-10.194-40.163-10.194-15.448 0-28.835 3.398-40.164 10.195-11.328 6.797-20.098 16.34-26.312 28.63-6.213 12.288-9.32 26.603-9.32 42.943 0 16.34 3.107 30.62 9.32 42.84 6.214 12.222 14.984 21.73 26.312 28.527 11.329 6.797 24.716 10.195 40.164 10.195zm.206-29.865c-8.582 0-15.705-2.317-21.37-6.95-5.663-4.635-9.886-10.866-12.666-18.692-2.78-7.827-4.17-16.546-4.17-26.158 0-9.68 1.39-18.451 4.17-26.312 2.78-7.861 7.003-14.126 12.667-18.795 5.664-4.668 12.787-7.002 21.369-7.002 8.376 0 15.379 2.334 21.008 7.002 5.63 4.669 9.835 10.934 12.616 18.795 2.78 7.86 4.17 16.632 4.17 26.312 0 9.612-1.39 18.331-4.17 26.158-2.78 7.826-6.986 14.057-12.616 18.691-5.63 4.634-12.632 6.951-21.008 6.951zM351.28 41.368c5.904 0 10.968-1.974 15.19-5.922 4.222-3.947 6.333-8.702 6.333-14.263 0-5.63-2.11-10.418-6.333-14.366-4.222-3.948-9.286-5.921-15.19-5.921s-10.985 1.973-15.242 5.921c-4.256 3.948-6.384 8.737-6.384 14.366 0 5.561 2.11 10.316 6.333 14.263 4.222 3.948 9.32 5.922 15.293 5.922zM369.817 222V63.818h-37.28V222h37.28zm61.916 0v-96.186c0-6.522 1.305-12.238 3.914-17.147 2.609-4.909 6.11-8.719 10.504-11.43 4.394-2.713 9.268-4.069 14.624-4.069 7.895 0 14.297 2.438 19.206 7.312 4.909 4.875 7.363 11.397 7.363 19.567V222h36.56v-98.658c0-8.925 2.522-16.185 7.568-21.78 5.047-5.596 12.067-8.394 21.06-8.394 7.552 0 13.937 2.283 19.155 6.849 5.218 4.565 7.827 11.757 7.827 21.575V222h37.383V115.825c0-17.645-4.6-31.067-13.8-40.267-9.2-9.2-21.077-13.8-35.632-13.8-11.466 0-21.37 2.627-29.71 7.879-8.342 5.252-14.264 12.272-17.765 21.06h-1.648c-3.02-8.925-8.221-15.98-15.602-21.163-7.38-5.184-16.426-7.775-27.136-7.775-10.573 0-19.67 2.557-27.29 7.672-7.621 5.115-13.08 12.203-16.375 21.266h-1.853V63.818h-35.632V222h37.28zm254.948 3.192c8.239 0 15.43-1.15 21.575-3.45 6.145-2.3 11.26-5.355 15.345-9.165 4.085-3.81 7.26-7.912 9.525-12.306h1.236V222H770.2V116.134c0-10.505-1.905-19.258-5.715-26.261-3.81-7.003-8.84-12.547-15.087-16.632-6.248-4.085-13.148-7.02-20.7-8.805-7.552-1.785-15.138-2.677-22.759-2.677-11.054 0-21.146 1.63-30.277 4.891s-16.855 8.136-23.171 14.624c-6.316 6.488-10.848 14.538-13.594 24.15l34.808 4.942c1.854-5.423 5.441-10.126 10.762-14.108 5.32-3.982 12.547-5.973 21.678-5.973 8.65 0 15.276 2.128 19.876 6.385 4.6 4.256 6.9 10.264 6.9 18.022v.618c0 3.57-1.322 6.196-3.965 7.878-2.644 1.682-6.849 2.918-12.616 3.707-5.767.79-13.285 1.665-22.553 2.626-7.69.824-15.121 2.146-22.296 3.965-7.174 1.82-13.61 4.48-19.31 7.981-5.698 3.502-10.194 8.17-13.49 14.006-3.295 5.836-4.943 13.216-4.943 22.141 0 10.367 2.317 19.087 6.951 26.158 4.635 7.072 10.95 12.41 18.95 16.014 7.997 3.604 17.008 5.406 27.032 5.406zm9.68-27.393c-7.757 0-14.142-1.75-19.154-5.252-5.012-3.502-7.518-8.685-7.518-15.55 0-4.806 1.27-8.737 3.81-11.792 2.54-3.055 6.008-5.441 10.402-7.157 4.394-1.717 9.371-2.953 14.932-3.708 2.119-.294 4.565-.639 7.34-1.034l1.414-.202c3.364-.48 6.762-1.03 10.195-1.647 3.433-.618 6.54-1.34 9.32-2.163 2.78-.824 4.754-1.716 5.921-2.678v18.64c0 5.836-1.493 11.226-4.48 16.169-2.986 4.943-7.225 8.908-12.718 11.894-5.492 2.987-11.98 4.48-19.463 4.48zM831.479 222v-92.685c0-7.62 1.425-14.108 4.274-19.463 2.85-5.356 6.797-9.458 11.843-12.307 5.046-2.85 10.83-4.274 17.353-4.274 9.611 0 17.146 2.987 22.604 8.96 5.458 5.973 8.187 14.246 8.187 24.819V222h37.28V121.283c.069-12.633-2.145-23.377-6.642-32.234-4.497-8.857-10.813-15.62-18.949-20.288-8.136-4.668-17.662-7.002-28.578-7.002-11.808 0-21.712 2.608-29.71 7.826-7.999 5.218-13.817 12.255-17.456 21.112h-1.854V63.818h-35.632V222h37.28zm184.59 2.78c9.062 0 16.58-1.51 22.553-4.53 5.973-3.022 10.78-6.677 14.418-10.968 3.639-4.291 6.42-8.36 8.341-12.204h2.266V222h36.662V11.09h-37.383v78.886h-1.545c-1.922-3.845-4.634-7.947-8.135-12.307-3.502-4.36-8.239-8.1-14.212-11.225-5.973-3.124-13.594-4.685-22.862-4.685-12.152 0-23.171 3.106-33.058 9.32-9.886 6.213-17.73 15.378-23.531 27.496-5.802 12.118-8.702 26.964-8.702 44.54 0 17.37 2.849 32.13 8.547 44.283 5.699 12.152 13.457 21.42 23.274 27.805 9.818 6.385 20.94 9.578 33.367 9.578zm10.401-30.585c-8.17 0-15.052-2.215-20.648-6.643-5.595-4.428-9.818-10.504-12.667-18.228-2.849-7.724-4.274-16.529-4.274-26.415 0-9.818 1.408-18.537 4.223-26.158 2.815-7.62 7.003-13.593 12.564-17.919 5.56-4.325 12.495-6.488 20.802-6.488 8.033 0 14.813 2.094 20.34 6.282 5.526 4.188 9.714 10.058 12.563 17.61 2.85 7.553 4.274 16.443 4.274 26.673 0 10.23-1.442 19.19-4.325 26.879-2.884 7.689-7.106 13.68-12.667 17.97-5.561 4.291-12.29 6.437-20.185 6.437zM1163.831 222v-92.994c0-6.728 1.544-12.667 4.634-17.816 3.09-5.149 7.329-9.182 12.718-12.1 5.39-2.918 11.483-4.377 18.28-4.377 3.158 0 6.436.223 9.835.67 3.398.446 5.887.943 7.466 1.493V62.582c-1.716-.343-3.862-.6-6.436-.772a105.486 105.486 0 00-6.952-.257c-9.062 0-17.112 2.488-24.15 7.466-7.036 4.977-11.997 12.032-14.88 21.163h-1.648V63.818h-36.147V222h37.28zm127.537 3.09c12.29 0 23.205-1.871 32.749-5.613 9.543-3.742 17.387-9.028 23.531-15.86 6.145-6.83 10.316-14.846 12.513-24.046l-34.809-3.913c-1.647 4.462-4.085 8.204-7.311 11.225-3.227 3.02-7.038 5.303-11.432 6.848-4.393 1.545-9.302 2.317-14.726 2.317-8.101 0-15.173-1.733-21.215-5.2-6.041-3.467-10.744-8.48-14.108-15.036-3.172-6.182-4.849-13.539-5.03-22.07l-.011-.637h110.186v-11.432c0-13.868-1.922-25.831-5.767-35.89-3.844-10.057-9.114-18.347-15.808-24.87-6.693-6.522-14.383-11.345-23.068-14.469-8.685-3.124-17.902-4.685-27.65-4.685-15.105 0-28.252 3.45-39.443 10.35-11.191 6.9-19.893 16.51-26.106 28.835-6.214 12.323-9.32 26.62-9.32 42.892 0 16.546 3.09 30.912 9.268 43.098 6.18 12.187 15.019 21.592 26.518 28.218 11.5 6.625 25.18 9.937 41.039 9.937zm-39.744-97.646c.42-5.998 2.014-11.57 4.781-16.717 3.193-5.939 7.673-10.745 13.44-14.418 5.767-3.673 12.46-5.51 20.081-5.51 7.14 0 13.405 1.614 18.795 4.84 5.389 3.228 9.594 7.639 12.615 13.234 3.02 5.596 4.566 11.963 4.634 19.104h-74.379l.033-.533zm188.804 97.645c13.182 0 24.854-2.128 35.015-6.384 10.16-4.257 18.107-10.179 23.84-17.765 5.733-7.586 8.634-16.357 8.702-26.312-.068-11.328-3.759-20.494-11.07-27.497-7.312-7.002-18.452-12.117-33.418-15.344l-26.982-5.767c-8.033-1.854-13.783-4.222-17.25-7.106-3.467-2.883-5.166-6.625-5.097-11.225-.069-5.355 2.523-9.715 7.775-13.079 5.252-3.364 11.757-5.046 19.515-5.046 5.767 0 10.642.927 14.624 2.78 3.982 1.854 7.157 4.291 9.526 7.312 2.368 3.021 4.033 6.248 4.994 9.68l33.985-3.707c-2.54-13.456-9.149-24.132-19.824-32.027-10.676-7.896-25.283-11.843-43.82-11.843-12.632 0-23.772 1.973-33.418 5.921-9.646 3.948-17.163 9.509-22.553 16.683-5.39 7.175-8.05 15.637-7.981 25.386v.616c.061 11.257 3.666 20.578 10.813 27.961 7.278 7.518 18.503 12.856 33.676 16.014l26.981 5.664c7.278 1.58 12.65 3.845 16.117 6.797 3.467 2.952 5.2 6.694 5.2 11.225 0 5.355-2.694 9.852-8.084 13.491-5.39 3.639-12.512 5.458-21.369 5.458-8.581 0-15.55-1.82-20.905-5.458-5.355-3.639-8.857-9.028-10.504-16.168l-36.353 3.501c2.265 14.555 9.302 25.9 21.111 34.036 11.809 8.136 27.394 12.203 46.754 12.203z"/></svg>
